<?xml version="1.0" encoding="UTF-8"?>
<map version="1.10" tiledversion="1.12.2" orientation="orthogonal" renderorder="right-down" width="60" height="60" tilewidth="64" tileheight="64" infinite="0" nextlayerid="7" nextobjectid="223">
 <tileset firstgid="1" source="spritesheet_tiles.tsx"/>
 <tileset firstgid="760" source="spritesheet_tiles.tsx"/>
 <layer id="1" name="Ground" width="60" height="60">
  <data encoding="csv">
1066,1067,1068,1066,1067,1068,1066,1067,1068,1066,1067,1068,1066,1067,1068,1066,1067,1068,1066,1067,1068,1066,1067,1068,1066,1067,1068,1066,1067,1068,1066,1067,1068,1066,1067,1068,1066,1067,1068,1066,1067,1068,1066,1067,1068,1066,1067,1068,1066,1067,1068,1066,1067,1068,1066,1067,1068,1066,1067,1068,
1089,1090,1091,1089,1090,1091,1089,1090,1091,1089,1090,1091,1089,1090,1091,1089,1090,1091,1089,1090,379,380,379,380,379,380,379,380,379,380,379,380,379,380,379,380,379,380,379,380,379,380,379,380,379,380,379,380,379,380,379,380,379,380,379,380,379,380,379,1091,
1066,1067,1068,1066,1067,1068,1066,1067,1068,1066,1067,1068,1066,1067,1068,1066,1067,1068,1066,1067,406,407,406,407,406,407,406,407,406,407,406,407,406,407,406,407,406,407,406,407,406,407,406,407,406,407,406,407,406,407,406,407,406,407,406,407,406,407,406,1068,
1089,1090,1091,1089,1090,1091,1089,1090,1091,1089,1090,1091,1089,1090,1091,1089,1090,1091,1089,1090,379,380,379,380,379,380,379,380,379,380,379,380,379,380,379,380,379,380,379,380,379,380,379,380,379,380,379,380,379,380,379,380,379,380,379,380,379,380,379,1091,
1066,1067,1068,1066,1067,1068,1066,1067,1068,1066,1067,1068,1066,1067,1068,1066,1067,1068,1066,1067,406,407,406,407,406,407,406,407,406,407,406,407,406,407,406,407,406,407,406,407,406,407,406,407,406,407,406,407,406,407,406,19,406,407,406,407,406,407,406,1068,
1089,1090,1091,1089,1090,1091,1089,1090,1091,1089,1090,1091,1089,1090,1091,1089,1090,1091,1089,1090,379,380,379,380,379,380,379,380,379,380,379,380,379,380,379,380,379,380,379,380,379,380,379,380,379,380,379,380,379,380,379,380,379,380,379,380,379,380,379,1091,
1066,1067,1068,1066,1067,1068,1066,1067,1068,1066,1067,1068,1066,1067,1068,1066,1067,1068,1066,1067,406,407,406,407,406,407,406,407,406,407,406,407,406,407,406,407,406,407,406,407,406,407,406,407,406,407,406,407,406,407,406,19,406,407,406,407,406,407,406,1068,
1089,1090,1091,1089,1090,1091,1089,1090,1091,1089,1090,1091,1089,1090,1091,1089,1090,1091,1089,1090,379,380,379,380,379,380,379,380,379,380,379,380,379,380,379,380,379,380,379,380,379,380,379,380,379,380,379,380,379,380,379,380,379,380,379,380,379,380,379,1091,
1066,1067,1068,1066,1067,1068,1066,1067,1068,1066,1067,1068,1066,1067,1068,1066,1067,1068,1066,1067,406,407,406,407,406,407,406,407,406,407,406,407,406,407,406,407,406,407,406,407,406,407,406,407,406,407,406,407,406,407,406,407,406,407,406,407,406,407,406,1068,
1089,1090,1091,1089,1090,1091,1089,1090,1091,1089,1090,1091,1089,1090,1091,1089,1090,1091,1089,1090,379,380,379,380,379,380,379,380,379,380,379,380,379,380,379,380,379,380,379,380,379,380,379,380,379,380,379,380,379,380,379,380,379,380,379,380,379,380,379,1091,
1066,1067,1068,1066,1067,1068,1066,1067,1068,1066,1067,1068,1066,1067,1068,1066,1067,1068,1066,1067,406,407,406,407,406,407,406,407,406,407,406,407,406,407,406,407,406,407,406,407,406,407,406,407,406,407,406,407,406,407,406,407,406,407,406,407,406,407,406,1068,
1089,1090,1091,1089,1090,1091,1089,1090,1091,1089,1090,1091,1089,1090,1091,1089,1090,1091,1089,1090,379,380,379,380,379,380,379,380,379,380,379,380,379,380,379,380,379,380,379,380,379,380,379,380,379,380,379,380,379,380,379,380,379,380,379,380,379,380,379,1091,
1066,1067,1068,1066,1067,1068,1066,1067,1068,1066,1067,1068,1066,1067,1068,1066,1067,1068,1066,1067,406,407,406,407,406,407,406,407,406,407,406,407,406,407,406,407,406,407,406,407,406,407,406,407,406,407,406,407,406,407,406,407,406,407,406,407,406,407,406,1068,
1089,1090,1091,1089,1090,1091,1089,1090,1091,1089,1090,1091,1089,1090,1091,1089,1090,1091,1089,1090,379,380,379,380,379,380,379,380,379,380,379,380,379,380,379,380,379,380,379,380,379,380,379,380,379,380,379,380,379,380,379,380,379,380,379,380,379,380,379,1091,
1066,1067,1068,1066,1067,1068,1066,1067,1068,1066,1067,1068,1066,1067,1068,1066,1067,1068,1066,1067,406,407,406,407,406,407,406,407,406,407,406,407,406,407,406,407,406,407,406,407,406,407,406,407,406,407,406,407,406,407,406,407,406,407,406,407,406,407,406,1068,
1089,1090,1091,1089,1090,1091,1089,1090,1091,1089,1090,1091,1089,1090,1091,1089,1090,1091,1089,1090,379,380,379,380,379,380,379,380,379,380,379,380,379,380,379,380,379,380,379,380,379,380,379,380,379,380,379,380,379,380,379,380,379,380,379,380,379,380,379,1091,
1066,1067,1068,1066,1067,1068,1066,1067,1068,1066,1067,1068,1066,1067,1068,1066,1067,1068,1066,1067,406,407,406,407,406,407,406,407,406,407,406,407,406,407,406,407,406,407,406,407,406,407,406,407,406,407,406,407,406,407,406,407,406,407,406,407,406,407,406,1068,
1089,1090,1091,1089,1090,1091,1089,1090,1091,1089,1090,1091,1089,1090,1091,1089,1090,1091,1089,1090,379,380,379,380,379,380,379,380,1022,1022,1022,1022,1022,380,379,380,379,380,379,380,379,380,379,380,379,380,379,380,379,380,379,380,379,380,379,380,379,380,379,1091,
1066,1067,1068,1066,1067,1068,1066,1067,1068,1066,1067,1068,1066,1067,1068,1066,1067,1068,1066,1067,1068,1066,1067,1068,1066,1067,1068,1066,1067,1068,1066,1067,1068,1066,1067,1068,1066,1067,1068,1066,1067,1068,1066,1067,1068,1066,1067,1068,1066,1067,1068,1066,1067,1068,1066,1067,1068,1066,1067,1068,
1089,1090,1091,1089,1090,1091,1089,1090,1091,1089,1090,1091,1089,1090,1091,1089,1090,1091,1089,1090,1091,1089,1090,1091,1089,1090,1091,1089,1090,1091,1089,1090,1091,1089,1090,1091,1089,1090,1091,1089,1090,1091,1089,1090,1091,1089,1090,1091,1089,1090,1091,1089,1090,1091,1089,1090,1091,1089,1090,1091,
1066,1067,1068,1066,1067,1068,1066,1067,1068,1066,1067,1068,1066,1067,1068,1066,1067,1068,1066,1067,1068,1066,1067,1068,1066,1067,1068,1066,1067,1068,1066,1067,1068,1066,1067,1068,1066,1067,1068,1066,1067,1068,1066,1067,1068,1066,1067,1068,1066,1067,1068,1066,1067,1068,1066,1067,1068,1066,1067,1068,
1089,1090,1091,1089,1090,1091,1089,1090,1091,1089,1090,1091,1089,1090,1091,1089,1090,1091,1089,1090,1091,1089,1090,1091,1089,1090,1091,1089,1090,1091,1089,1090,1091,1089,1090,1091,1089,1090,1091,1089,1090,1091,1089,1090,1091,1089,1090,1091,1089,1090,1091,1089,1090,1091,1089,1090,1091,1089,1090,1091,
1066,1067,1068,1066,1067,1068,1066,1067,1068,1066,1067,1068,1066,1067,1068,1066,1067,1068,1066,1067,1068,1066,1067,1068,1066,1067,1068,1066,1067,1068,1066,1067,1068,1066,1067,1068,1066,1067,1068,1066,1067,1068,1066,1067,1068,1066,1067,1068,1066,1067,1068,1066,1067,1068,1066,1067,1068,1066,1067,1068,
1089,1090,1091,1089,1090,1091,1089,1090,1091,1089,1090,1091,1089,1090,1091,1089,1090,1091,1089,1090,1091,1089,1090,1091,1089,1090,1091,1089,1090,1091,1089,1090,1091,1089,1090,1091,1089,1090,1091,1089,1090,1091,1089,1090,1091,1089,1090,1091,1089,1090,1091,1089,1090,1091,1089,1090,1091,1089,1090,1091,
1066,1067,1068,1066,1067,1068,1066,1067,1068,1066,1067,1068,1066,1067,1068,1066,1067,1068,1066,1067,1068,1066,1067,1068,1066,1067,1068,1066,1067,1068,1066,1067,1068,1066,1067,1068,1066,1067,1068,1066,1067,1068,1066,1067,1068,1066,1067,1068,1066,1067,1068,1066,1067,1068,1066,1067,1068,1066,1067,1068,
1089,1090,1091,1089,1090,1091,1089,1090,1091,1089,1090,1091,1089,1090,1091,1089,1090,1091,1089,1090,1091,1089,1090,1091,1089,1090,1091,1089,1090,1091,1089,1090,1091,1089,1090,1091,1089,1090,1091,1089,1090,1091,1089,1090,1091,1089,1090,1091,1089,1090,1091,1089,1090,1091,1089,1090,1091,1089,1090,1091,
1066,1067,1068,1066,1067,1068,1066,1067,1068,1066,1067,1068,1066,1067,1068,1066,1067,1068,1066,1067,1068,1066,1067,1068,1066,1067,1068,1066,1067,1068,1066,1067,1068,1066,1067,1068,1066,1067,1068,1066,1067,1068,1066,1067,1068,1066,1067,1068,1066,1067,1068,1066,1067,1068,1066,1067,1068,1066,1067,1068,
1089,1090,1091,1089,1090,1091,1089,1090,1091,1089,1090,1091,1089,1090,1091,1089,1090,1091,1089,1090,1091,1089,1090,1091,1089,1090,1091,1089,1090,1091,1089,1090,1091,1089,1090,1091,1089,1090,1091,1089,1090,1091,1089,1090,1091,1089,1090,1091,1089,1090,1091,1089,1090,1091,1089,1090,1091,1089,1090,1091,
1066,1067,1068,1066,1067,1068,1066,1067,1068,1066,1067,1068,1066,1067,1068,1066,1067,1068,1066,1067,1068,1066,1067,1068,1066,1067,1068,1066,1067,1068,1066,1067,1068,1066,1067,1068,1066,1067,1068,1066,1067,1068,1066,1067,1068,1066,1067,1068,1066,1067,1068,1066,1067,1068,1066,1067,1068,1066,1067,1068,
1089,1090,1091,1089,1090,1091,1089,1090,1091,1089,1090,1091,1089,1090,1091,1089,1090,1091,1089,1090,1091,1089,1090,1091,1089,1090,1091,1089,1090,1091,1089,1090,1091,1089,1090,1091,1089,1090,1091,1089,1090,1091,1089,1090,1091,1089,1090,1091,1089,1090,1091,1089,1090,1091,1089,1090,1091,1089,1090,1091,
1066,1067,1068,1066,1067,1068,1066,1067,1068,1066,1067,1068,1066,1067,1068,1066,1067,1068,1066,1067,1068,1066,1067,1068,1066,1067,1068,1066,1067,1068,1066,1067,1068,1066,1067,1068,1066,1067,1068,1066,1067,1068,1066,1067,1068,1066,1067,1068,1066,1067,1068,1066,1067,1068,1066,1067,1068,1066,1067,1068,
1089,1090,1091,1089,1090,1091,1089,1090,1091,1089,1090,1091,1089,1090,1091,1089,1090,1091,1089,1090,1091,1089,1090,1091,1089,1090,1091,1089,1090,1091,1089,1090,1091,1089,1090,1091,1089,1090,1091,1089,1090,1091,1089,1090,1091,1089,1090,1091,1089,1090,1091,1089,1090,1091,1089,1090,1091,1089,1090,1091,
1066,1067,1068,1066,1067,1068,1066,1067,1068,1066,1067,1068,1066,1067,1068,1066,1067,1068,1066,1067,1068,1066,1067,1068,1066,1067,1068,1066,1067,1068,1066,1067,1068,1066,1067,1068,1066,1067,1068,1066,1067,1068,1066,1067,1068,1066,1067,1068,1066,1067,1068,1066,1067,1068,1066,1067,1068,1066,1067,1068,
1089,1090,1091,1089,1090,1091,1089,1090,1091,1089,1090,1091,1089,1090,1091,1089,1090,1091,1089,1090,1091,1089,1090,1091,1089,1090,1091,1089,1090,1091,1089,1090,1091,1089,1090,1091,1089,1090,1091,1089,1090,1091,1089,1090,1091,1089,1090,1091,1089,1090,1091,1089,1090,1091,1089,1090,1091,1089,1090,1091,
1066,1067,1068,1066,1067,1068,1066,370,371,371,371,371,371,371,372,1066,1067,1068,1066,1067,1068,1066,1067,370,371,371,371,371,372,1068,1066,1067,1068,1066,1067,1068,1066,1067,1068,1066,1067,1068,1066,1067,1068,1066,1067,1068,1066,1067,1068,1066,1067,1068,1066,1067,1068,1066,1067,1068,
1089,1090,1091,1089,1090,1091,1089,397,398,398,398,398,398,398,399,1089,1090,1091,1089,1090,1091,1089,1090,397,398,398,398,398,399,1091,1089,1090,1091,1089,1090,1091,1089,1090,1091,1089,1090,1091,1089,1090,1091,1089,1090,1091,1089,1090,1091,1089,1090,1091,1089,1090,1091,1089,1090,1091,
1066,1067,1068,1066,1067,1068,1066,397,398,398,398,398,398,398,399,1066,1067,1068,1066,1067,1068,1066,1067,397,398,398,398,398,399,1068,1066,1067,1068,1066,1067,1068,1066,1067,1068,1066,1067,1068,1066,1067,1068,1066,1067,1068,1066,1067,1068,1066,1067,1068,1066,1067,1068,1066,1067,1068,
1089,1090,1091,1089,1090,1091,1089,397,398,398,398,398,398,398,399,1089,317,1091,1089,1090,1091,1089,1090,397,398,398,398,398,399,1091,1089,1090,1091,1089,1090,1091,1089,1090,1091,1089,1090,1091,1089,1090,1091,1089,1090,1091,1089,1090,1091,1089,1090,1091,1089,1090,1091,1089,1090,1091,
1066,1067,1068,1066,1067,1068,1066,397,398,398,398,398,398,398,399,1066,1067,1068,1066,1067,1068,1066,1067,424,425,398,398,398,426,1068,1066,1067,1068,1066,1067,1068,1066,1067,1068,1066,1067,1068,1066,1067,1068,1066,1067,1068,1066,1067,1068,1066,1067,1068,1066,1067,1068,1066,1067,1068,
1089,1090,1091,1089,1090,1091,1089,397,398,398,398,398,398,398,399,1089,1090,1091,1089,1090,1091,1089,1090,1091,1089,1090,1091,1089,1090,1091,1089,1090,1091,1089,1090,1091,1089,1090,1091,1089,1090,1091,1089,1090,1091,1089,1090,1091,1089,1090,1091,1089,1090,1091,1089,1090,1091,1089,1090,1091,
1066,1067,1068,1066,1067,1068,1066,424,425,425,398,398,398,425,426,1066,1067,1068,1066,1067,1068,1066,1067,1068,1066,1067,1068,1066,1067,1068,1066,1067,1068,1066,1067,1068,1066,1067,1068,1066,1067,1068,1066,1067,1068,1066,1067,1068,1066,1067,1068,1066,1067,1068,1066,1067,1068,1066,1067,1068,
1089,1090,1091,1089,1090,1091,1089,1090,1091,1089,1090,1091,1089,1090,1091,1089,1090,1091,1089,1090,1091,1089,1090,1091,1089,1090,1091,1066,1067,1068,1089,1090,1091,1089,1090,1091,1089,1090,1091,1089,1090,1091,1089,1090,1091,1089,1090,1091,1089,1090,1091,1089,1090,1091,1089,1090,1091,1089,1090,1091,
1066,1067,1068,1066,1067,1068,1066,1067,1068,1066,1067,1068,1066,1067,1068,1066,1067,1068,1066,1067,1068,1066,1067,1068,1066,1067,1068,1089,1066,1091,1066,1067,1068,1066,1067,1068,1066,1067,1068,1066,1067,1068,1066,1067,1068,1066,1067,1068,1066,1067,1068,1066,1067,1068,1066,1067,1068,1066,1067,1068,
1089,1090,1091,1089,1090,1091,1089,1090,1091,1089,1090,1091,1089,1090,1091,1089,1090,1091,1089,1090,1091,1089,1090,1091,1089,1090,1091,1089,1090,1091,1089,1090,1091,1089,1090,1091,1089,1090,1091,1089,1090,1091,1089,1090,1091,1089,1090,1091,1089,1090,1091,1089,1090,1091,1089,1090,1091,1089,1090,1091,
1066,1067,1068,1066,1067,1068,1066,1067,1068,1066,1067,1068,1066,1067,1068,1066,1067,1068,1066,1067,1068,1066,1067,1068,1066,1067,1068,1066,1067,1068,1066,1067,1068,1066,1067,1068,1066,1067,1068,1066,1067,1068,1066,1067,1068,1066,1067,1068,1066,1067,1068,1066,1067,1068,1066,1067,1068,1066,1067,1068,
1089,1090,1091,1089,1090,1091,1089,1090,1091,1089,1090,1091,1089,1090,1091,1089,1090,1091,1089,1090,1091,72,72,72,72,72,1091,1089,1090,1091,1089,1090,1091,1089,1090,1091,1089,1090,1091,1089,1090,1091,1089,1090,1091,1089,1090,1091,1089,1090,1091,1089,1090,1091,1089,1090,1091,1089,1090,1091,
1066,1067,1068,1066,1067,1068,1066,1067,1068,1066,1067,1068,1066,1067,1068,1066,1067,1068,1066,1067,1068,370,371,371,371,371,371,371,372,1068,1066,1067,1068,1066,1067,1068,1066,1067,1068,1066,1067,1068,1066,1067,1068,1066,1067,1068,1066,1067,1068,1066,1067,4,2,1067,1068,1066,1067,1068,
1089,1090,1091,1089,1090,1091,1089,1090,1091,1089,1090,1091,1089,1090,1091,1089,1090,1091,1089,1090,1091,397,398,398,398,398,398,398,399,1091,1089,1090,1091,1089,1090,1091,1089,1090,1091,1089,1090,1091,1089,1090,1091,1089,1090,1091,1089,1090,1091,1089,1090,1091,2,1090,1091,1089,1090,1091,
1066,1067,1068,1066,1067,1068,1066,370,371,371,371,371,372,1067,1068,1066,1067,1068,1066,1067,1068,397,398,398,398,398,398,398,399,1068,1066,1067,1068,1066,1067,1068,1066,1067,1068,1066,1067,1068,1066,1067,1068,1066,1067,1068,1066,1067,1068,1066,1067,1068,1,1067,1068,1066,1067,1068,
1089,1090,1091,1089,1090,1091,1089,397,398,398,398,398,399,1090,1091,1089,1090,1091,1089,1090,1091,397,398,398,398,398,398,398,399,1091,1089,1090,1091,1089,1090,1091,1089,1090,1091,1089,1090,1091,1089,1090,1091,1089,1090,1091,1089,1090,1091,1089,1,1091,1089,1090,1091,1089,1090,1091,
1066,1067,1068,1066,1067,1068,1066,397,398,398,398,398,399,1067,1068,1066,1067,1068,1066,1067,1068,397,398,398,398,398,398,398,399,1068,1066,1067,1068,1066,1067,1068,1066,1067,1068,1066,1067,1068,1066,1067,1068,1066,1067,1068,1066,1067,1068,1066,3,1068,1066,1067,1068,1066,1067,1068,
1089,1090,1091,1089,1090,1091,1089,397,398,398,398,398,399,1090,1091,1089,1090,1091,1089,1090,1091,397,398,398,398,398,398,398,399,1091,1089,1090,1091,1089,1090,1091,1089,1090,1091,1089,1090,1091,1089,1090,1091,1089,1090,1091,1089,1090,1091,1089,1090,1091,1089,1090,1091,1089,1090,1091,
1066,1067,1068,1066,1067,1068,1066,424,398,398,398,398,426,1067,1068,1066,1067,1068,1066,1067,1068,424,425,398,398,398,425,425,426,1068,1066,1067,1068,1066,1067,1068,1066,1067,1068,1066,1067,1068,1066,1067,1068,1066,1067,1068,1066,1067,1068,1066,1067,1068,1066,1067,1068,1066,1067,1068,
1089,1090,1091,1089,1090,1091,1089,1090,1091,1089,1090,1091,1089,1090,1091,1089,1090,1091,1089,1090,1091,1089,1090,1091,1089,1090,1091,1089,1090,1091,1089,1090,1091,1089,1090,1091,1089,1090,1091,1089,1090,1091,1089,1090,1091,1089,1090,1091,1089,1090,1091,1089,1090,1091,1089,1090,1091,1089,1090,1091,
1066,1067,1068,1066,1067,1068,1066,1067,1068,1066,1067,1068,1066,1067,1068,1066,1067,1068,1066,1067,1068,1066,1067,1068,1066,1067,1068,1066,1067,1068,1066,1067,1068,1066,1067,1068,1066,1067,1068,1066,1067,1068,1066,1067,1068,1066,1067,1068,1066,1067,1068,1066,3,1,1066,1067,1068,1066,1067,1068,
1089,1090,1091,1089,1090,1091,1089,1090,1091,1089,1090,1091,1089,1090,1091,1089,1090,1091,1089,1090,1091,1089,1090,1091,1089,1090,1091,1089,1090,1091,1089,1090,1091,1089,1090,1091,1089,1090,1091,1089,1090,1091,1089,1090,1091,1089,1090,1091,1089,1090,1091,1089,1090,1091,1089,1090,1091,1089,1090,1091,
1066,1067,1068,1066,1067,1068,1066,1067,1068,1066,1067,1068,1066,1067,1068,1066,1067,1068,1066,1067,1068,1066,1067,1068,1066,1067,1068,1066,1067,1068,1066,1067,1068,1066,1067,1068,1066,1067,1068,1066,1067,1068,1066,1067,1068,1066,1067,1068,1066,4,1068,1066,1067,1068,1066,1067,1068,1066,1067,1068,
1089,1090,1091,1089,1090,1091,1089,1090,1091,1089,1090,1091,1089,1090,1091,1089,1090,1091,1089,1090,1091,1089,1090,1091,1089,1090,1091,1089,1090,1091,1089,1090,1091,1089,1090,1091,1089,1090,1091,1089,1090,1091,1089,1090,1091,1089,1090,1091,1089,1090,1091,1089,1090,1091,1089,1090,1091,1089,1090,1091,
1066,1067,1068,1066,1067,1068,1066,1067,1068,1066,1067,1068,1066,1067,1068,1066,1067,1068,1066,1067,1068,1066,1067,1068,1066,1067,1068,1066,1067,1068,1066,1067,1068,1066,1067,1068,1066,1067,1068,1066,1067,1068,1066,1067,1068,1066,1067,1068,1066,1067,1068,1066,1067,1068,1066,1067,1068,1066,1067,1068,
1089,1090,1091,1089,1090,1091,1089,1090,1091,1089,1090,1091,1089,1090,1091,1089,1090,1091,1089,1090,1091,1089,1090,1091,1089,1090,1091,1089,1090,1091,1089,1090,1091,1089,1090,1091,1089,1090,1091,1089,1090,1091,1089,1090,1091,1089,1090,1091,1089,1090,1091,1089,1090,1091,1089,1090,1091,1089,1090,1091
</data>
 </layer>
 <layer id="2" name="decorations" width="60" height="60">
  <data encoding="csv">
0,0,0,0,0,0,0,0,0,0,0,0,0,0,0,0,0,0,0,0,0,0,0,0,0,0,0,0,0,0,0,0,0,0,0,0,0,0,1122,1123,0,0,1122,1122,1122,1122,1122,1122,1123,0,0,0,0,0,0,0,0,0,0,0,
0,0,0,0,0,0,0,0,0,0,0,0,0,0,0,0,0,0,0,0,0,0,0,0,0,0,0,0,0,0,0,0,0,0,1122,1123,1123,1122,1122,1123,1123,1122,1123,1123,1123,1145,1122,1123,1123,0,0,0,0,0,0,0,0,0,0,0,
0,0,0,0,0,0,0,0,0,0,0,0,0,0,0,0,0,0,0,0,1122,1122,1122,1122,1122,1123,0,0,1122,1122,1122,1122,1122,1122,1122,1122,1123,1122,1122,1122,1122,1122,1123,1146,1146,1123,1123,1123,1146,1123,1123,1123,1123,1123,1123,1122,1123,1123,0,0,
0,0,0,0,0,0,0,0,0,0,0,0,0,0,0,0,0,0,0,0,1122,1122,1145,1145,1122,1122,1122,1122,1122,1123,1123,1123,1123,1122,1145,1122,1122,1122,1122,1145,1122,1123,1146,1145,1146,1146,1146,1146,1146,1146,1146,1146,1146,1146,1146,1122,1123,1146,0,0,
0,0,0,0,0,0,0,0,0,0,0,0,0,0,0,0,0,0,0,0,1122,1122,1122,1145,1145,1145,1122,1123,1123,1123,1123,1146,1146,1145,1122,1122,1122,1122,1145,1145,1122,1123,1146,1122,1123,1146,1122,1122,1123,1145,1122,1123,1123,1123,1123,1145,1146,1146,0,0,
0,0,0,0,0,0,0,0,0,0,0,0,0,0,0,0,0,0,0,0,1122,1122,1122,1122,1122,1123,1123,1123,1146,1146,1146,1123,1123,1123,1122,1145,1122,1145,1146,1122,1122,1122,1122,1122,1123,1122,1122,1123,1122,1123,1123,1146,1146,1122,1122,1145,1145,1146,1123,1123,
0,0,0,0,0,0,0,0,0,0,0,0,0,0,0,0,0,0,0,0,0,1122,1123,1122,1122,1123,1146,1146,1123,1146,1123,1146,1146,1123,1122,1122,1145,1145,1146,1122,1122,1122,1122,1123,1123,1145,1122,1122,1122,1122,1122,1122,1122,1145,1122,1145,1146,1123,1123,1146,
0,0,0,0,0,0,0,0,0,0,0,0,0,0,0,0,0,0,0,0,0,1122,1123,1122,1122,1123,1146,1146,1146,1123,1146,1146,1146,1146,1145,1145,1146,1122,1122,1123,1145,1122,1122,1123,1122,1122,1145,1145,1145,1145,1145,1145,1145,1122,1145,1146,1146,1146,1146,0,
0,0,0,0,0,0,0,0,0,0,0,0,0,0,0,0,0,0,0,0,0,1122,1122,1123,1122,1122,1122,1122,1122,1122,1122,1122,1122,1122,1145,1145,1146,1145,1145,1146,1146,1122,1122,1122,1145,1145,1146,1146,1122,1145,1122,1145,1145,1145,1145,1146,1145,1146,0,0,
0,0,0,0,0,0,0,0,0,0,0,0,0,0,0,0,0,0,0,0,0,1145,1122,1123,1145,1145,1145,1145,1145,1145,1145,1145,1145,1145,1122,1122,1145,1145,1146,1123,1122,1122,1145,1145,1146,1145,1146,1122,1122,1122,1145,1145,1146,1145,1122,1123,1145,1146,0,0,
0,0,0,0,0,0,0,0,0,0,0,0,0,0,0,0,0,0,0,0,0,1122,1123,1123,1145,1146,1146,1146,1146,1146,1146,1123,1122,1122,1122,1145,1145,1146,1146,1146,1122,1145,1145,1146,1145,1145,1122,1122,1122,1122,1145,1146,1122,1122,1122,1123,1145,1146,0,0,
0,0,0,0,0,0,0,0,0,0,0,0,0,0,0,0,0,0,0,0,0,1122,1123,1123,1122,1145,1146,1146,1146,1146,1146,1146,1122,1123,1123,1146,1146,1122,1123,1122,1145,1145,1146,1145,1146,1146,1122,1145,1122,1145,1146,1146,1122,1122,1123,1146,1145,1146,0,0,
0,0,0,0,0,0,0,0,0,0,0,0,0,0,0,0,0,0,0,0,0,1122,1123,1123,1145,1145,1146,1146,1146,1123,1145,1145,1122,1122,1122,1122,1123,1123,1123,1145,1146,1146,1145,1146,1146,1145,1145,1146,1122,1145,1146,1145,1122,1122,1123,0,1145,1146,0,0,
0,0,0,0,0,0,0,0,0,0,0,0,0,0,0,0,0,0,0,0,0,1122,1123,1146,1145,1145,1146,1146,1146,1146,1145,1146,1145,1122,1123,1123,1123,1123,1122,1145,1146,1146,1146,1146,1146,1122,1145,1122,1122,1122,1122,1122,1122,1122,1122,1122,1145,1146,0,0,
0,0,0,0,0,0,0,0,0,0,0,0,0,0,0,0,0,0,0,0,0,1122,1123,1146,1122,1145,1146,1123,1122,1145,1146,1122,1145,1122,1122,1123,1146,1122,1145,1146,1145,1146,1146,1123,1122,1145,1122,1145,1145,1122,1145,1122,1122,1122,1122,1122,1145,1146,0,0,
0,0,0,0,0,0,0,0,0,0,0,0,0,0,0,0,0,0,0,0,0,1122,1122,1122,1145,1145,1146,1146,1145,1145,1146,1122,1145,1145,1122,1122,1122,1145,1145,1146,1145,1146,1122,1122,1122,1122,1145,1146,1122,1145,1146,1122,1145,1145,1145,1122,1145,1146,0,0,
0,0,0,0,0,0,0,0,0,0,0,0,0,0,0,0,0,0,0,0,0,1145,1145,1145,1145,1146,1145,1145,1145,1146,1146,1145,1145,1146,1145,1145,1145,1145,1146,1145,1146,1145,1145,1145,1145,1122,1145,1146,1145,1146,1146,1145,1145,1122,1145,1145,1145,1146,0,0,
0,0,0,0,0,0,0,0,0,0,0,0,0,0,0,0,0,0,0,0,0,0,0,0,0,0,0,0,1022,1022,1022,1022,0,0,0,0,0,0,0,1145,1146,0,0,1145,1146,1145,1146,1122,1145,1146,0,1145,1146,1145,1146,1145,1146,0,0,0,
0,0,0,0,0,0,0,0,0,0,0,0,0,0,0,0,0,0,0,0,0,0,0,0,0,0,0,0,0,0,0,0,0,0,0,0,0,0,0,0,0,0,0,0,0,0,0,1145,1145,1146,0,1145,1146,0,0,0,0,0,0,0,
0,0,0,0,0,0,0,0,0,0,0,0,0,0,0,0,0,0,0,0,0,0,0,0,0,0,0,0,0,0,0,0,0,0,0,0,0,0,0,0,0,0,0,0,0,0,0,0,0,0,0,0,0,0,0,0,0,0,0,0,
0,0,0,0,0,0,0,0,0,0,0,0,0,0,0,0,0,0,0,0,0,0,0,0,0,0,0,0,0,0,0,0,0,0,0,0,0,0,0,0,0,0,0,0,0,0,0,0,0,0,0,0,0,0,0,0,0,0,0,0,
0,0,0,0,0,0,0,0,0,0,0,0,0,0,0,0,0,0,0,0,0,0,0,0,0,0,0,0,0,0,0,0,0,0,0,0,0,0,0,0,0,0,0,0,0,0,0,0,0,0,0,0,0,0,0,0,0,0,0,0,
0,0,0,0,0,0,0,0,0,0,0,0,0,0,0,0,0,0,0,0,0,0,0,0,0,0,0,0,0,0,0,0,0,0,0,0,0,0,0,0,0,0,0,0,0,0,0,0,0,0,0,0,0,0,0,0,0,0,0,0,
0,0,0,0,0,0,0,0,0,0,0,0,0,0,0,0,0,0,0,0,0,0,0,0,0,0,0,0,0,0,0,0,0,0,0,0,0,0,0,0,0,0,0,0,0,0,0,0,0,0,0,0,0,0,0,0,0,0,0,0,
0,0,0,0,0,0,0,0,0,0,0,0,0,0,0,0,0,0,0,0,0,0,0,0,0,0,0,0,0,0,0,0,0,0,0,0,0,0,0,0,0,0,0,0,0,0,0,0,0,0,0,0,0,0,0,0,0,0,0,0,
0,0,0,0,0,0,0,0,0,0,0,0,0,0,0,0,0,0,0,0,0,0,0,0,0,0,0,0,0,0,0,0,0,0,0,0,0,0,0,0,0,0,0,0,0,0,0,0,0,0,0,0,0,0,0,0,0,0,0,0,
0,0,0,0,0,0,0,0,0,0,0,0,0,0,0,0,0,0,0,0,0,0,0,0,0,0,0,0,0,0,0,0,0,0,0,0,0,0,0,0,0,0,0,0,0,0,0,0,0,0,0,0,0,0,0,0,0,0,0,0,
0,0,0,0,0,0,0,0,0,0,0,0,0,0,0,0,0,0,0,0,0,0,0,0,0,0,0,0,0,0,0,0,0,0,0,0,0,0,0,0,0,0,0,0,0,0,0,0,0,0,0,0,0,0,0,0,0,0,0,0,
0,0,0,0,0,0,0,0,0,0,0,0,0,0,0,0,0,0,0,0,0,0,0,0,0,0,0,0,0,0,0,0,0,0,0,0,0,0,0,0,0,0,0,0,0,0,0,0,0,0,0,0,0,0,0,0,0,0,0,0,
0,0,0,0,0,0,0,0,0,0,0,0,0,0,0,0,0,0,0,0,0,0,0,0,0,0,0,0,0,0,0,0,0,0,0,0,0,0,0,0,0,0,0,0,0,0,0,0,0,0,0,0,0,0,0,0,0,0,0,0,
0,0,0,0,0,0,0,0,0,0,0,0,0,0,0,0,0,0,0,0,0,0,0,0,0,0,0,0,0,0,0,0,0,0,0,0,0,0,0,0,0,0,0,0,0,0,0,0,0,0,0,0,0,0,0,0,0,0,0,0,
0,0,0,0,0,0,0,0,0,0,0,0,0,0,0,0,0,0,0,0,0,0,0,0,0,0,0,0,0,0,0,0,0,0,0,0,0,0,0,0,0,0,0,0,0,0,0,0,0,0,0,0,0,0,0,0,0,0,0,0,
0,0,0,0,0,0,0,0,0,0,0,0,0,0,0,0,0,0,0,0,0,0,0,0,0,0,0,0,0,0,0,0,0,0,0,0,0,0,0,0,0,0,0,0,0,0,0,0,0,0,0,0,0,0,0,0,0,0,0,0,
0,0,0,0,0,0,0,0,0,0,0,0,0,0,0,0,0,0,0,0,0,0,0,0,0,0,0,0,0,0,0,0,0,0,0,0,0,0,0,0,0,0,0,0,0,0,0,0,0,0,0,0,0,0,0,0,0,0,0,0,
0,0,0,0,0,0,0,0,0,0,0,0,0,0,0,0,0,0,0,0,0,0,0,0,0,0,0,0,0,0,0,0,0,0,0,0,0,0,0,0,0,0,0,0,0,0,0,0,0,0,0,0,0,0,0,0,0,0,0,0,
0,0,0,0,0,0,0,0,2684354662,2684354635,2684354608,0,0,0,0,0,0,0,0,0,0,0,0,0,3221225574,0,0,0,0,0,0,0,0,0,0,0,0,0,0,0,0,0,0,0,0,0,0,0,0,0,0,0,0,0,0,0,0,0,0,0,
0,0,0,0,0,0,0,0,0,0,0,0,0,0,0,0,0,0,0,0,0,0,0,0,3221225547,0,0,0,0,0,0,0,0,0,0,0,0,0,0,0,0,0,0,0,0,0,0,0,0,0,0,0,0,0,0,0,0,0,0,0,
0,0,0,0,0,0,0,0,0,0,0,0,0,0,0,0,0,0,0,0,0,0,0,0,3221225520,0,0,0,0,0,0,0,0,0,0,0,0,0,0,0,0,0,0,0,0,0,0,0,0,0,0,0,0,0,0,0,0,0,0,0,
0,0,0,0,0,0,0,0,0,0,0,0,0,0,0,0,0,0,0,0,0,0,0,0,0,0,0,0,0,0,0,0,0,0,0,0,0,0,0,0,0,0,0,0,0,0,0,0,0,0,0,0,0,0,0,0,0,0,0,0,
0,0,0,0,0,0,0,0,0,0,0,0,0,0,0,0,0,0,0,0,0,0,0,0,0,0,0,0,0,0,0,0,0,0,0,0,0,0,0,0,0,0,0,0,0,0,0,0,0,0,0,0,0,0,0,0,0,0,0,0,
0,0,0,0,0,0,0,0,0,0,0,0,0,0,0,0,0,0,0,0,0,0,0,0,0,0,0,0,0,0,0,0,0,0,0,0,0,0,0,0,0,0,0,0,0,0,0,0,0,0,0,0,0,0,0,0,0,0,0,0,
0,0,0,0,0,0,0,0,0,0,0,0,0,0,0,0,0,0,0,0,0,0,0,0,0,0,0,0,0,0,0,0,0,0,0,0,0,0,0,0,0,0,0,0,0,0,0,0,0,0,0,0,0,0,0,0,0,0,0,0,
0,0,0,0,0,0,0,0,0,0,0,0,0,0,0,0,0,0,0,0,0,0,0,0,0,0,0,0,0,0,0,0,0,0,0,0,0,0,0,0,0,0,0,0,0,0,0,0,0,0,0,0,0,0,0,0,0,0,0,0,
0,0,0,0,0,0,0,0,0,0,0,0,0,0,0,0,0,0,0,0,0,0,0,0,0,0,0,0,0,0,0,0,0,0,0,0,0,0,0,0,0,0,0,0,0,0,0,0,0,0,0,0,0,0,0,0,0,0,0,0,
0,0,0,0,0,0,0,0,0,0,0,0,0,0,0,0,0,0,0,0,0,0,0,0,0,0,0,0,0,0,0,0,0,0,0,0,0,0,0,0,0,0,0,0,0,0,0,0,0,0,0,0,0,0,0,0,0,0,0,0,
0,0,0,0,0,0,0,0,0,0,0,0,0,0,0,0,0,0,0,0,0,0,0,0,0,0,0,0,0,0,0,0,0,0,0,0,0,0,0,0,0,0,0,0,0,0,0,0,0,0,0,0,0,0,0,0,0,0,0,0,
0,0,0,0,0,0,0,0,0,0,0,0,0,0,0,0,0,0,0,0,0,0,0,0,0,0,0,0,0,0,0,0,0,0,0,0,0,0,0,0,0,0,0,0,0,0,0,0,0,0,0,0,0,0,0,0,0,0,0,0,
0,0,0,0,0,0,0,0,0,0,0,0,0,0,0,0,0,0,0,0,0,0,3221225574,0,0,0,0,0,0,0,0,0,0,0,0,0,0,0,0,0,0,0,0,0,0,0,0,0,0,0,0,0,0,0,0,0,0,0,0,0,
0,0,0,0,0,0,0,0,0,0,0,0,0,0,0,0,0,0,0,0,0,0,3221225547,0,0,0,0,0,0,0,0,0,0,0,0,0,0,0,0,0,0,0,0,0,0,0,0,0,0,0,0,0,0,0,0,0,0,0,0,0,
0,0,0,0,0,0,0,0,0,0,0,3221225574,0,0,0,0,0,0,0,0,0,0,3221225520,0,0,0,0,0,0,0,0,0,0,0,0,0,0,0,0,0,0,0,0,0,0,0,0,0,0,0,0,0,0,0,0,0,0,0,0,0,
0,0,0,0,0,0,0,0,0,0,0,3221225547,0,0,0,0,0,0,0,0,0,0,0,0,0,0,0,0,0,0,0,0,0,0,0,0,0,0,0,0,0,0,0,0,0,0,0,0,0,0,0,0,0,0,0,0,0,0,0,0,
0,0,0,0,0,0,0,0,0,0,0,3221225520,0,0,0,0,0,0,0,0,0,0,0,0,0,0,0,0,0,0,0,0,0,0,0,0,0,0,0,0,0,0,0,0,0,0,0,0,0,0,0,0,0,0,0,0,0,0,0,0,
0,0,0,0,0,0,0,0,0,0,0,0,0,0,0,0,0,0,0,0,0,0,0,0,0,0,0,0,0,0,0,0,0,0,0,0,0,0,0,0,0,0,0,0,0,0,0,0,0,0,0,0,0,0,0,0,0,0,0,0,
0,0,0,0,0,0,0,0,0,0,0,0,0,0,0,0,0,0,0,0,0,0,0,0,0,0,0,0,0,0,0,0,0,0,0,0,0,0,0,0,0,0,0,0,0,0,0,0,0,0,0,0,0,0,0,0,0,0,0,0,
0,0,0,0,0,0,0,0,0,0,0,0,0,0,0,0,0,0,0,0,0,0,0,0,0,0,0,0,0,0,0,0,0,0,0,0,0,0,0,0,0,0,0,0,0,0,0,0,0,0,0,0,0,0,0,0,0,0,0,0,
0,0,0,0,0,0,0,0,0,0,0,0,0,0,0,0,0,0,0,0,0,0,0,0,0,0,0,0,0,0,0,0,0,0,0,0,0,0,0,0,0,0,0,0,0,0,0,0,0,0,0,0,0,0,0,0,0,0,0,0,
0,0,0,0,0,0,0,0,0,0,0,0,0,0,0,0,0,0,0,0,0,0,0,0,0,0,0,0,0,0,0,0,0,0,0,0,0,0,0,0,0,0,0,0,0,0,0,0,0,0,0,0,0,0,0,0,0,0,0,0,
0,0,0,0,0,0,0,0,0,0,0,0,0,0,0,0,0,0,0,0,0,0,0,0,0,0,0,0,0,0,0,0,0,0,0,0,0,0,0,0,0,0,0,0,0,0,0,0,0,0,0,0,0,0,0,0,0,0,0,0,
0,0,0,0,0,0,0,0,0,0,0,0,0,0,0,0,0,0,0,0,0,0,0,0,0,0,0,0,0,0,0,0,0,0,0,0,0,0,0,0,0,0,0,0,0,0,0,0,0,0,0,0,0,0,0,0,0,0,0,0,
0,0,0,0,0,0,0,0,0,0,0,0,0,0,0,0,0,0,0,0,0,0,0,0,0,0,0,0,0,0,0,0,0,0,0,0,0,0,0,0,0,0,0,0,0,0,0,0,0,0,0,0,0,0,0,0,0,0,0,0
</data>
 </layer>
 <layer id="3" name="Trees" width="60" height="60">
  <data encoding="csv">
183,183,183,183,183,183,183,183,183,183,183,183,183,183,183,183,183,183,183,183,183,183,183,183,183,183,183,183,183,183,183,183,183,183,183,183,183,183,183,183,183,183,183,183,183,183,183,183,183,183,183,183,183,183,183,183,183,183,183,183,
183,0,0,0,0,0,0,0,0,0,0,0,0,0,183,0,0,0,0,0,0,0,0,0,0,0,0,0,0,0,0,0,0,0,0,0,0,0,0,0,0,0,0,0,0,0,0,0,0,0,0,0,0,0,0,0,0,0,0,183,
183,0,0,0,0,0,0,0,0,0,0,0,0,0,183,0,0,0,0,0,0,0,0,0,0,0,0,0,0,0,0,0,0,0,0,0,0,0,0,0,0,0,0,0,0,0,0,0,0,0,0,0,0,0,0,0,0,0,0,183,
183,0,0,0,0,0,0,0,0,0,0,0,0,0,183,183,0,0,0,0,0,0,0,0,0,0,0,0,0,0,0,0,0,0,0,0,0,0,0,0,0,0,0,0,0,0,0,0,0,0,0,0,0,0,0,0,0,0,0,183,
183,0,0,0,0,0,0,0,0,0,0,0,0,0,0,183,0,0,0,0,0,0,0,0,0,0,0,0,0,0,0,0,0,0,0,0,0,0,0,0,0,0,0,0,0,0,0,0,0,0,0,0,0,0,0,0,0,0,0,183,
183,0,0,0,0,0,0,0,0,0,0,0,0,0,0,183,0,0,0,0,0,0,0,0,0,0,0,0,0,0,0,0,0,0,0,0,0,0,0,0,0,0,0,0,0,0,0,0,0,0,0,0,0,0,0,0,0,0,0,183,
183,0,0,0,0,0,0,0,0,0,0,0,0,0,0,183,0,0,0,0,815,0,0,0,0,0,0,0,0,0,0,0,0,0,0,0,0,0,0,0,0,0,0,0,0,0,0,0,0,0,0,0,0,0,0,0,0,0,0,183,
183,0,0,0,0,0,0,0,0,183,0,0,0,0,0,183,0,0,0,0,838,0,0,0,0,0,0,0,0,0,0,0,0,0,0,0,0,0,0,0,0,0,0,0,0,0,0,0,0,0,0,0,0,0,0,0,0,0,0,183,
183,0,0,0,0,0,0,0,183,183,0,0,0,0,0,183,0,0,0,0,861,0,0,0,0,0,0,0,0,0,0,0,0,0,0,0,0,0,0,0,0,0,0,0,0,0,0,0,0,0,0,0,0,0,0,0,0,0,0,183,
183,0,0,0,0,0,0,0,183,0,0,0,0,0,0,183,0,0,0,0,884,0,0,0,0,0,0,0,0,0,0,0,0,0,0,0,0,0,0,0,0,0,0,0,0,0,0,0,0,0,0,0,0,0,0,0,0,0,0,183,
183,0,0,0,0,0,0,0,183,0,0,0,0,0,183,183,0,0,0,0,907,0,0,0,0,0,0,0,0,0,0,0,0,0,0,0,0,0,0,0,0,0,0,0,0,0,0,0,0,0,0,0,0,0,0,0,0,0,0,183,
183,0,0,0,0,0,0,0,183,0,0,0,0,0,183,183,0,0,0,0,815,0,0,0,0,0,0,0,0,0,0,0,0,0,0,0,0,0,0,0,0,0,0,0,0,0,0,0,0,0,0,0,0,0,0,0,0,0,0,183,
183,0,0,0,0,0,0,183,183,0,0,0,0,0,0,0,0,0,0,0,838,0,0,0,0,0,0,0,0,0,0,0,0,0,0,0,0,0,0,0,0,0,0,0,0,0,0,0,0,0,0,0,0,0,0,0,0,0,0,183,
183,0,0,0,0,0,0,183,0,0,0,0,0,0,0,0,0,0,0,0,861,0,0,0,0,0,0,0,0,0,0,0,0,0,0,0,0,0,0,0,0,0,0,0,0,0,0,0,0,0,0,0,0,0,0,0,0,0,0,183,
183,0,0,0,0,0,0,183,0,0,0,0,0,0,0,0,0,0,0,0,884,0,0,0,0,0,0,0,0,0,0,0,0,0,0,0,0,0,0,0,0,0,0,0,0,0,0,0,0,0,0,0,0,0,0,0,0,0,0,183,
183,0,0,0,0,0,0,183,0,0,0,0,0,0,0,0,0,0,0,0,907,0,0,0,0,0,0,0,0,0,0,0,0,0,0,0,0,0,0,0,0,0,0,0,0,0,0,0,0,0,0,0,0,0,0,0,0,0,0,183,
183,0,0,0,0,0,0,183,0,0,0,0,0,0,0,0,0,0,0,0,930,0,0,0,0,0,0,0,0,0,0,0,0,0,0,0,0,0,0,0,0,0,0,0,0,0,0,0,0,0,0,0,0,0,0,0,0,0,0,183,
183,0,0,0,0,0,0,183,0,0,0,0,0,0,0,0,0,0,0,0,930,0,0,0,0,0,0,0,0,0,0,0,0,0,0,0,0,0,0,0,0,0,0,0,0,0,0,0,0,0,0,0,0,0,0,0,0,0,0,183,
183,0,0,0,0,0,0,183,0,0,0,0,0,0,0,0,0,0,0,0,183,183,0,0,0,0,0,0,0,0,0,0,0,0,0,0,0,0,0,0,0,0,0,0,0,0,0,0,0,0,0,0,0,0,0,0,0,0,0,183,
183,0,0,0,0,0,0,183,0,0,0,0,0,0,0,0,183,183,183,183,183,183,183,183,0,0,0,0,0,0,0,0,0,0,0,0,0,0,0,0,0,0,0,0,0,0,0,0,0,0,0,0,0,0,0,0,0,0,0,183,
183,0,0,0,0,0,0,183,0,0,0,0,0,183,183,183,183,0,0,0,0,0,0,183,0,0,0,0,0,0,0,0,0,0,0,0,0,0,0,0,0,0,0,0,0,0,0,0,0,0,0,0,0,0,0,0,0,0,0,183,
183,0,0,0,0,0,0,183,0,183,183,183,183,183,0,0,0,0,0,0,0,0,0,183,183,183,183,0,0,832,0,0,0,0,0,0,0,0,0,0,0,0,0,0,0,0,0,0,0,0,0,0,0,0,0,0,0,0,0,183,
183,0,0,0,0,0,0,183,183,183,183,0,0,0,0,0,0,0,0,0,0,0,0,0,0,0,183,183,183,183,183,183,0,0,0,0,0,0,0,0,0,0,0,0,0,0,0,0,0,0,0,0,0,0,0,0,0,0,0,183,
183,0,0,0,0,0,0,0,0,0,0,0,0,0,0,0,0,0,0,0,0,0,0,0,0,0,0,0,0,0,0,183,183,0,0,0,0,0,0,0,0,0,0,0,0,0,0,0,0,0,0,0,0,0,0,0,0,0,0,183,
183,0,0,0,0,0,0,0,0,0,0,0,0,0,0,0,0,0,0,0,0,0,0,0,0,0,0,0,0,0,0,0,183,183,0,0,0,0,0,0,0,0,0,0,0,0,0,0,0,0,0,0,0,0,0,0,0,0,0,183,
183,0,0,0,0,0,0,0,0,0,0,0,0,0,0,0,0,0,0,0,0,0,0,0,0,0,0,0,0,0,0,0,0,183,183,0,0,0,0,0,0,0,0,0,0,0,0,0,0,0,0,0,0,0,0,0,0,0,0,183,
183,0,0,0,0,0,0,0,0,0,0,0,0,0,0,0,0,0,0,0,0,0,0,0,0,0,0,0,0,0,0,0,0,0,183,0,0,0,0,0,0,0,0,0,0,0,0,0,0,0,0,0,0,0,0,0,0,0,0,183,
183,0,0,0,0,0,0,0,0,0,0,0,0,0,0,0,0,0,0,0,0,0,0,0,0,831,831,831,831,183,0,0,0,0,183,0,0,0,0,0,0,0,0,0,0,0,0,0,0,0,0,0,0,0,0,0,0,0,0,183,
183,0,0,0,0,0,0,0,0,0,0,0,0,0,0,0,183,183,183,183,183,183,831,831,831,831,831,0,0,0,0,0,0,0,186,186,0,0,0,0,0,0,0,0,0,0,0,0,0,0,0,0,0,0,0,0,0,0,0,183,
183,0,0,0,0,0,0,0,183,183,183,183,183,183,183,183,183,0,0,0,0,0,0,0,0,0,0,0,0,0,0,0,0,0,186,186,0,0,0,0,0,0,0,0,0,0,0,0,0,0,0,0,0,0,0,0,0,0,0,183,
183,0,0,0,0,183,183,183,183,0,0,0,0,0,0,0,0,0,0,0,0,0,0,0,0,0,0,0,0,0,0,0,0,0,0,186,0,0,0,0,0,0,0,0,0,0,0,0,0,0,0,0,0,0,0,0,0,0,0,183,
183,0,0,831,831,0,0,0,0,0,0,0,0,0,0,0,0,0,0,0,0,0,0,0,0,0,0,0,0,0,0,0,0,0,0,186,186,0,0,0,0,0,0,0,0,0,0,0,0,0,0,0,0,0,0,0,0,0,0,183,
183,183,183,183,0,0,0,0,0,0,0,0,0,0,0,0,0,0,0,0,0,0,0,0,0,0,0,0,0,0,0,0,0,0,0,0,186,0,0,0,0,0,0,0,0,0,0,0,0,0,0,0,0,0,0,0,0,0,0,183,
183,0,0,0,0,0,0,0,0,0,0,0,0,0,0,0,0,0,0,0,0,0,0,0,0,0,0,0,0,0,0,0,0,0,0,0,186,186,0,0,0,0,0,0,0,0,0,0,0,0,0,0,0,0,0,0,0,0,0,183,
183,0,0,0,0,0,0,0,0,0,0,0,0,0,0,0,0,0,0,0,0,0,0,0,0,0,0,0,0,0,0,0,0,0,0,0,186,186,0,0,0,0,0,0,0,0,0,0,0,0,0,0,0,0,0,0,0,0,0,183,
183,0,0,0,0,0,0,0,0,0,0,0,0,0,0,0,0,0,0,0,0,0,0,0,0,0,0,0,0,0,0,0,0,0,0,0,186,186,186,0,0,0,0,0,0,0,0,0,0,0,0,0,0,0,0,0,0,0,0,183,
183,0,0,0,0,0,0,0,0,0,0,0,0,0,0,0,0,0,0,0,0,0,0,0,0,0,0,0,0,0,0,0,0,0,0,0,186,0,186,0,0,0,0,0,0,0,0,0,0,0,0,0,0,0,0,0,0,0,0,183,
183,0,0,0,0,0,0,0,0,0,0,0,0,0,0,0,0,0,0,0,0,0,0,0,0,0,0,0,0,0,0,0,0,0,0,0,186,0,186,0,0,0,0,0,0,0,0,0,0,0,0,0,0,0,0,0,0,0,0,183,
183,0,0,0,0,0,0,0,0,0,0,0,0,0,0,0,0,0,0,0,0,0,0,0,0,0,0,0,0,0,0,0,0,0,0,0,186,0,186,0,0,0,0,0,0,0,0,0,0,0,0,0,0,0,0,0,0,0,0,183,
183,0,0,0,0,0,0,0,0,0,0,0,0,0,0,0,0,0,0,0,0,0,0,0,0,0,0,0,0,0,0,0,0,0,0,0,186,0,186,0,0,0,0,0,0,0,0,0,0,0,0,0,0,0,0,0,0,0,0,183,
183,0,0,0,0,0,0,0,0,0,0,0,0,0,0,0,0,0,0,0,0,0,0,0,0,0,0,0,0,0,0,0,0,0,0,0,186,186,186,0,0,0,0,0,0,0,0,0,0,0,0,0,0,0,0,0,0,0,0,183,
183,0,0,0,0,0,0,0,0,0,0,0,0,0,0,0,0,0,0,0,0,0,0,0,0,0,0,0,0,0,0,0,0,0,0,0,186,186,0,0,0,0,0,0,0,0,0,0,0,0,0,0,0,0,0,0,0,0,0,183,
183,0,0,0,0,0,0,0,0,0,0,0,0,0,0,0,0,0,0,0,0,0,0,0,0,0,0,0,0,0,0,0,0,0,0,0,186,186,0,0,0,0,0,0,0,0,0,0,0,0,0,0,0,0,0,0,0,0,0,183,
183,0,0,0,0,0,0,0,0,0,0,0,0,0,0,0,0,0,0,0,0,0,0,0,0,0,0,0,0,0,0,0,0,0,0,0,186,186,0,0,0,0,0,0,0,0,0,0,0,0,0,0,0,0,0,0,0,0,0,183,
183,0,0,0,0,0,0,0,0,0,0,0,0,0,0,0,0,0,0,0,0,0,0,0,0,0,0,0,0,0,0,0,0,0,0,0,186,186,0,0,0,0,0,0,0,0,0,0,0,0,0,0,0,0,0,0,0,0,0,183,
183,0,0,0,0,0,0,0,0,0,0,0,0,0,0,0,0,0,0,0,0,0,0,0,0,0,0,0,0,0,0,0,0,0,0,0,186,186,0,0,0,0,0,0,0,0,0,0,0,0,0,0,0,0,0,0,0,0,0,183,
183,0,0,0,0,0,0,0,0,0,0,0,0,0,0,0,0,0,0,0,0,0,0,0,0,0,0,0,0,0,0,0,0,0,0,0,186,186,0,0,0,0,0,0,0,0,0,0,0,0,0,0,0,0,0,0,0,0,0,183,
183,0,0,0,0,0,0,0,0,0,0,0,0,0,0,0,0,0,0,0,0,0,0,0,0,0,0,0,0,0,0,0,0,0,0,0,186,186,0,0,0,0,0,0,0,0,0,0,0,0,0,0,0,0,0,0,0,0,0,183,
183,0,0,0,0,0,0,0,0,0,0,0,0,0,0,0,0,0,0,0,0,0,0,0,0,0,0,0,0,0,0,0,0,0,0,0,186,186,0,0,0,0,0,0,0,0,0,0,0,0,0,0,0,0,0,0,0,0,0,183,
183,0,0,0,0,0,0,0,0,0,0,0,0,0,0,0,0,0,0,0,0,0,0,0,0,0,0,0,0,0,0,0,0,0,0,186,186,186,0,0,0,0,0,0,0,0,0,0,0,0,0,0,0,0,0,0,0,0,0,183,
183,0,0,0,0,0,0,0,0,0,0,0,0,0,0,0,0,0,0,0,0,0,0,0,0,0,0,0,0,0,0,0,0,0,0,186,186,186,0,0,0,0,0,0,0,0,0,0,0,0,0,0,0,0,0,0,0,0,0,183,
183,0,0,0,0,0,0,0,0,0,0,0,0,0,0,0,0,0,0,0,0,0,0,0,0,0,0,0,0,0,0,0,0,0,0,186,186,0,0,0,0,0,0,0,0,0,0,0,0,0,0,0,0,0,0,0,0,0,0,183,
183,0,0,0,0,0,0,0,0,0,0,0,0,0,0,0,0,0,0,0,0,0,0,0,0,0,0,0,0,0,0,0,0,0,0,186,186,0,0,0,0,0,0,0,0,0,0,0,0,0,0,0,0,0,0,0,0,0,0,183,
183,0,0,0,0,0,0,0,0,0,0,0,0,0,0,0,0,0,0,0,0,0,0,0,0,0,0,0,0,0,0,0,0,0,0,186,186,0,0,0,0,0,0,0,0,0,0,0,0,0,0,0,0,0,0,0,0,0,0,183,
183,0,0,0,0,0,0,0,0,0,0,0,0,0,0,0,0,0,0,0,0,0,0,0,0,0,0,0,0,0,0,0,0,0,0,186,186,0,0,0,0,0,0,0,0,0,0,0,0,0,0,0,0,0,0,0,0,0,0,183,
183,0,0,0,0,0,0,0,0,0,0,0,0,0,0,0,0,0,0,0,0,0,0,0,0,0,0,0,0,0,0,0,0,0,0,186,186,186,0,0,0,0,0,0,0,0,0,0,0,0,0,0,0,0,0,0,0,0,0,183,
183,0,0,0,0,0,0,0,0,0,0,0,0,0,0,0,0,0,0,0,0,0,0,0,0,0,0,0,0,0,0,0,0,0,0,186,0,186,0,0,0,0,0,0,0,0,0,0,0,0,0,0,0,0,0,0,0,0,0,183,
183,0,0,0,0,0,0,0,0,0,0,0,0,0,0,0,0,0,0,0,0,0,0,0,0,0,0,0,0,0,0,0,0,0,0,186,0,186,0,0,0,0,0,0,0,0,0,0,0,0,0,0,0,0,0,0,0,0,0,183,
183,0,0,0,0,0,0,0,0,0,0,0,0,0,0,0,0,0,0,0,0,0,0,0,0,0,0,0,0,0,0,0,0,0,0,186,186,186,0,0,0,0,0,0,0,0,0,0,0,0,0,0,0,0,0,0,0,0,0,183,
183,183,183,183,183,183,183,183,183,183,183,183,183,183,183,183,183,183,183,183,183,183,183,183,183,183,183,183,183,183,183,183,183,183,183,183,186,183,183,183,183,183,183,183,183,183,183,183,183,183,183,183,183,183,183,183,183,183,183,183
</data>
 </layer>
 <layer id="4" name="Walls" width="60" height="60">
  <data encoding="csv">
0,0,0,0,0,0,0,0,0,0,0,0,0,0,0,0,0,0,0,0,0,0,0,0,845,846,847,848,848,0,0,0,0,0,0,0,0,0,0,0,0,0,0,0,0,0,0,0,0,0,0,0,0,0,0,0,0,0,0,0,
0,0,0,0,0,0,0,0,0,0,0,0,0,0,0,0,0,0,0,0,845,846,847,848,848,845,846,847,848,848,848,848,848,848,848,848,848,848,848,848,848,848,848,845,845,845,845,845,845,845,845,845,845,845,845,846,847,848,918,0,
0,0,0,0,0,0,0,0,0,0,0,0,0,0,72,0,0,0,0,0,437,0,0,0,0,0,0,0,0,0,0,0,0,0,0,0,0,0,0,0,0,0,0,0,0,0,0,0,0,0,0,0,0,0,0,0,0,0,941,0,
0,0,0,0,0,0,0,0,0,0,0,0,0,0,72,72,0,0,0,0,0,0,0,0,0,0,0,0,0,0,0,0,0,0,0,0,0,0,0,0,0,0,0,0,0,0,109,111,111,111,111,111,111,111,111,111,110,0,964,0,
0,0,0,0,0,0,0,0,0,0,0,0,0,0,0,72,0,0,0,0,0,0,0,0,0,0,0,0,0,0,0,0,0,0,0,0,0,0,0,0,0,0,0,0,0,0,138,0,0,0,0,0,0,0,0,0,138,0,987,0,
0,0,0,0,0,0,0,0,0,0,0,0,0,0,0,72,0,0,0,0,0,0,0,0,0,0,0,0,0,0,0,0,0,0,0,0,0,0,0,0,0,0,0,0,0,0,138,321,321,321,321,321,321,321,321,321,138,0,1010,0,
0,0,0,0,0,0,0,0,0,0,0,0,0,0,0,72,0,0,0,0,815,0,0,0,0,0,0,0,0,0,0,0,0,0,0,0,0,0,0,0,0,0,0,0,0,0,138,0,0,0,0,0,0,0,0,0,138,0,964,0,
0,0,0,0,0,0,0,0,0,72,0,0,0,0,0,72,0,0,0,0,838,0,0,0,0,0,0,0,0,0,0,0,0,0,0,0,0,0,0,0,0,0,0,0,0,0,138,0,0,0,0,0,0,0,0,0,138,0,987,0,
0,0,0,0,0,0,0,0,72,72,0,0,0,0,0,72,0,0,0,0,861,0,0,0,0,0,0,0,0,0,0,0,0,0,0,0,0,0,0,0,0,0,0,0,0,0,138,0,0,0,0,0,0,0,0,0,138,0,1010,0,
0,0,0,0,0,0,0,0,72,0,0,0,0,0,0,72,0,0,0,0,884,0,0,0,0,0,0,0,0,0,0,0,0,0,0,0,0,0,0,0,0,0,0,0,0,0,138,0,0,0,0,0,0,0,0,0,138,0,964,918,
0,0,0,0,0,0,0,0,72,0,0,0,0,0,72,72,0,0,0,0,907,0,0,0,0,0,0,0,0,0,0,0,0,0,0,0,0,0,0,0,0,0,0,0,0,0,136,111,111,111,0,0,0,111,111,111,137,0,987,941,
0,0,0,0,0,0,0,0,72,0,0,0,0,0,72,72,0,0,0,0,930,0,0,0,0,0,0,0,0,0,0,0,0,0,0,0,0,0,0,0,0,0,0,0,0,0,0,0,0,0,0,0,0,0,0,0,0,0,1010,964,
0,0,0,0,0,0,0,72,72,0,0,0,0,0,0,0,0,0,0,0,815,0,0,0,0,0,0,0,0,0,0,0,0,0,0,0,0,0,0,0,0,0,0,0,0,0,0,0,0,0,0,0,0,0,0,0,0,0,1010,987,
0,0,0,0,0,0,0,72,0,0,0,0,0,0,0,0,0,0,0,0,838,0,0,0,0,0,0,0,0,0,0,0,0,0,0,0,0,0,0,0,0,0,0,0,0,0,0,0,0,0,0,0,0,0,0,0,0,0,987,1010,
0,0,0,0,0,0,0,72,0,0,0,0,0,0,0,0,0,0,0,0,861,0,0,0,0,0,0,0,0,0,0,0,0,0,0,0,0,0,0,0,0,0,0,0,0,0,0,0,0,0,0,0,0,0,0,0,0,0,1010,1010,
0,0,0,0,0,0,0,72,0,0,0,0,0,0,0,0,0,0,0,0,884,0,0,0,0,0,0,0,0,0,0,0,0,0,0,0,0,0,0,0,0,0,0,0,0,0,0,0,0,0,0,0,0,0,0,0,0,0,1010,0,
0,0,0,0,0,0,0,72,0,0,0,0,0,0,0,0,0,0,0,0,907,0,0,0,0,0,0,0,0,0,0,0,0,0,0,0,0,0,0,0,0,0,0,0,0,0,0,0,0,0,0,0,0,0,0,0,0,0,1010,0,
0,0,0,0,0,0,0,72,0,0,0,0,0,0,0,0,0,0,0,0,1022,1024,1024,1024,1024,0,0,0,1022,1022,1022,1022,1022,1022,1022,1022,1022,1022,1022,1022,1022,1022,1022,1022,1022,1022,1022,1022,1022,1022,1022,1022,1022,1022,1022,1022,1022,1022,1022,0,
0,0,0,0,0,0,0,72,0,0,0,0,0,0,0,0,0,0,0,0,72,72,0,0,0,0,0,0,0,0,0,0,0,0,0,0,0,0,0,0,0,0,0,0,0,0,0,0,0,0,0,0,0,0,0,0,0,0,0,0,
0,0,0,0,0,0,0,72,0,0,0,0,0,0,0,0,72,72,72,72,72,72,72,72,0,0,0,0,0,0,0,0,0,0,0,0,0,0,0,0,0,0,0,0,0,0,0,0,0,0,0,0,0,0,0,0,0,0,0,0,
0,0,0,0,0,0,0,72,0,0,0,0,0,72,72,72,72,0,0,0,0,0,0,72,0,0,0,0,0,0,0,0,0,0,0,0,0,0,0,0,0,0,0,205,205,0,0,0,0,205,0,0,0,0,0,0,0,0,0,0,
0,0,0,0,0,0,0,72,0,72,72,72,72,72,0,0,0,0,0,0,0,0,0,72,72,72,0,0,0,0,0,0,0,0,0,0,205,0,0,0,0,0,0,0,205,0,0,0,205,205,0,0,0,0,0,0,0,0,0,0,
0,0,0,0,0,0,0,72,72,72,72,0,0,0,0,0,0,0,0,0,0,0,0,0,0,72,72,72,72,72,72,72,0,0,0,0,205,205,0,0,0,0,0,0,205,0,0,0,205,0,0,0,0,0,205,205,0,0,0,0,
0,0,0,0,0,0,0,0,0,0,0,0,0,0,0,0,0,0,0,0,0,0,0,0,0,0,0,0,0,0,0,72,72,0,0,0,0,205,205,0,0,0,0,0,205,0,0,0,0,0,0,0,0,0,0,0,0,0,0,0,
0,0,0,0,0,0,0,0,0,0,0,0,0,0,0,0,0,0,0,0,0,0,0,0,0,0,0,0,0,0,0,0,72,72,0,0,17,0,205,205,0,0,0,0,205,205,0,0,0,0,0,0,0,0,0,0,0,0,0,0,
0,0,0,0,0,0,0,0,0,0,0,0,0,0,0,0,0,0,0,0,0,0,0,0,0,0,0,0,0,0,0,0,0,72,72,0,0,0,0,0,0,0,0,0,0,205,205,0,0,0,0,0,0,0,0,0,0,0,0,0,
0,0,0,0,0,0,0,0,0,0,0,0,0,0,0,0,0,0,0,0,0,0,0,0,0,0,0,0,0,0,0,0,0,0,72,0,0,0,0,0,0,0,0,0,0,0,205,205,0,0,0,0,0,0,0,0,0,0,0,0,
0,0,0,0,0,0,0,0,0,0,0,0,0,0,0,0,0,0,0,0,0,0,0,0,0,0,0,0,0,0,0,0,0,0,72,0,0,0,0,0,0,0,0,0,205,0,205,205,0,0,0,0,205,0,0,0,0,0,0,0,
0,0,0,0,0,0,0,0,0,0,0,0,0,0,0,0,72,72,72,72,72,72,0,0,0,0,0,0,0,0,0,0,0,0,0,0,0,0,0,205,0,0,0,205,205,0,0,205,205,0,0,0,205,0,0,0,0,0,0,0,
0,0,0,0,0,0,0,0,72,72,72,72,72,72,72,72,72,0,0,0,0,0,0,0,0,0,0,0,0,0,0,0,0,0,0,0,0,0,0,205,0,0,0,205,0,0,0,205,0,205,0,0,0,205,0,0,0,0,0,0,
0,0,0,0,0,72,72,72,72,0,0,0,0,0,0,0,0,0,0,0,0,0,0,0,0,0,0,0,0,0,0,0,0,0,0,0,0,0,0,0,0,0,0,205,0,0,0,0,0,205,0,0,0,205,0,0,0,0,0,0,
0,0,0,0,0,0,0,0,0,0,0,0,0,0,0,0,0,0,0,0,0,0,0,0,0,0,0,0,0,0,0,0,0,0,0,0,0,0,0,0,0,0,205,0,0,0,0,0,0,0,205,0,0,0,0,0,0,0,0,0,
0,0,0,0,0,0,0,0,0,0,0,0,0,0,0,0,0,0,0,0,0,0,0,0,0,0,0,0,0,0,0,0,0,0,0,0,0,0,0,0,0,0,205,0,0,0,0,0,0,0,205,0,0,0,0,0,0,0,0,0,
0,0,0,0,0,0,118,72,72,72,72,72,72,72,72,119,0,0,0,0,0,118,72,72,72,72,72,72,72,72,119,0,0,0,0,0,0,0,0,0,0,0,0,0,0,0,0,205,0,0,0,0,0,0,0,0,0,0,0,0,
0,0,0,0,0,0,147,425,425,425,425,425,425,425,425,147,0,0,0,0,0,147,425,425,425,425,425,425,425,425,147,0,0,0,0,0,0,0,0,0,0,205,0,0,0,0,0,205,205,0,0,0,0,0,0,0,0,0,0,0,
0,0,0,0,0,0,147,425,425,425,425,425,425,425,425,147,0,0,0,0,0,147,425,425,425,425,425,425,425,425,147,0,0,0,0,0,0,0,0,0,0,0,0,0,0,0,205,0,205,205,0,0,0,0,0,0,0,0,0,0,
0,0,0,0,0,0,147,425,425,425,425,425,425,425,425,147,0,0,0,0,0,147,425,425,425,425,425,425,425,425,147,0,0,0,0,0,0,0,0,0,0,0,0,0,0,205,205,0,0,205,205,205,0,0,0,0,0,0,0,0,
0,0,0,0,0,0,147,425,425,425,425,425,425,425,425,147,317,0,0,0,0,147,425,425,425,425,425,425,425,425,147,317,0,0,0,0,0,0,0,0,0,0,0,0,205,0,0,0,0,0,0,0,0,0,0,0,0,0,0,0,
0,0,0,0,0,0,147,425,425,425,425,425,425,425,425,147,0,0,0,0,0,147,425,425,425,425,425,425,425,425,147,0,0,0,0,0,0,0,0,0,0,0,0,205,205,0,0,0,0,0,0,0,0,0,0,0,0,0,0,0,
0,0,0,0,0,0,147,425,425,425,425,425,425,425,425,147,0,0,0,0,0,147,425,425,425,425,425,425,425,425,147,0,0,0,0,0,0,0,0,0,0,0,0,205,0,0,0,0,0,0,0,0,0,0,205,205,205,0,0,0,
0,0,0,0,0,0,147,0,0,425,425,425,0,0,0,147,0,0,0,0,0,147,0,0,425,425,425,0,0,0,147,0,0,0,0,0,0,0,0,0,0,0,0,205,0,0,0,0,0,0,0,0,0,205,205,0,205,0,0,0,
0,0,0,0,0,0,72,72,72,72,425,425,72,72,72,146,0,0,0,0,0,72,72,72,72,425,425,72,72,72,146,0,0,0,0,0,0,0,0,0,0,0,0,205,0,0,205,0,0,0,0,0,205,0,0,0,0,0,0,0,
0,0,0,0,0,0,0,0,0,0,0,0,0,0,0,0,0,0,0,0,0,0,0,0,0,0,0,0,0,0,0,0,0,0,0,0,0,0,0,0,0,0,0,0,0,0,205,0,0,0,0,205,0,0,0,0,0,0,0,0,
0,0,0,0,0,0,0,0,0,0,0,0,0,0,0,0,0,0,0,0,0,0,0,0,0,0,0,0,0,0,0,0,0,0,0,0,0,0,205,0,0,0,0,0,0,0,205,0,0,205,205,205,0,0,0,0,0,0,0,0,
0,0,0,0,0,0,0,0,0,0,0,0,0,0,0,0,0,0,0,0,0,0,0,0,0,0,0,0,0,0,0,0,0,0,0,0,0,0,205,205,0,0,0,0,0,0,205,205,0,205,0,0,0,0,0,0,0,0,0,0,
0,0,0,0,0,0,0,0,0,0,0,0,0,0,0,0,0,0,0,0,118,72,72,72,72,72,72,72,72,119,0,0,0,0,0,0,0,0,0,205,205,0,0,0,0,0,205,0,205,0,0,0,205,0,0,0,0,0,0,0,
0,0,0,0,0,118,72,72,72,72,72,72,72,72,119,0,0,0,0,0,147,425,425,425,425,425,425,425,425,147,0,0,0,0,0,0,0,0,0,0,205,205,205,0,0,205,0,0,0,0,0,205,205,0,0,0,0,0,0,0,
0,0,0,0,0,147,425,425,425,425,425,425,425,425,147,0,0,0,0,0,147,425,425,425,425,425,425,425,425,147,0,0,0,0,0,0,0,0,0,0,0,0,205,205,0,205,0,0,0,0,0,205,0,0,0,0,0,205,0,0,
0,0,0,0,0,147,425,425,425,425,425,425,425,425,147,0,0,0,0,0,147,425,425,425,425,425,425,425,425,147,0,0,0,0,0,0,0,0,0,0,0,0,0,205,205,0,0,0,0,0,0,205,0,0,0,0,0,205,0,0,
0,0,0,0,0,147,425,425,425,425,425,425,425,425,147,0,0,0,0,0,147,425,425,425,425,425,425,425,425,147,752,753,0,0,0,0,0,0,0,0,0,0,0,0,0,0,0,0,0,0,0,0,0,0,0,0,0,205,0,0,
0,0,0,0,0,147,425,425,425,425,425,425,425,425,147,317,0,0,0,0,147,425,425,425,425,425,425,425,425,147,0,0,0,0,0,0,0,0,0,0,0,0,0,0,0,0,0,0,0,0,0,0,0,0,0,0,0,205,0,0,
0,0,0,0,0,147,425,425,425,425,425,425,425,425,147,0,0,0,0,0,147,425,425,425,425,425,425,425,425,147,0,0,0,0,0,0,0,0,0,0,0,0,0,0,0,0,0,0,0,0,0,0,205,205,0,0,0,0,0,0,
0,0,0,0,0,147,425,425,425,425,425,425,425,425,147,0,0,0,0,0,147,0,0,425,425,425,0,0,0,147,0,0,0,0,0,0,0,0,0,205,205,0,0,0,0,0,0,0,0,0,0,0,0,205,205,0,0,0,0,0,
0,0,0,0,0,147,145,120,425,425,425,120,120,146,147,0,0,0,0,0,72,72,72,72,425,425,72,72,72,146,0,0,0,0,0,0,0,0,0,0,205,0,0,0,0,0,0,205,0,0,0,0,0,0,205,0,0,0,0,0,
0,0,0,0,0,72,72,72,72,425,425,72,72,72,146,0,0,0,0,0,0,0,0,0,0,0,0,0,0,0,0,0,0,0,0,0,0,0,0,0,205,205,0,0,0,0,205,205,0,0,0,0,0,0,0,0,0,0,0,0,
0,0,0,0,0,0,0,0,0,0,0,0,0,0,0,0,0,0,0,0,0,0,0,0,0,0,0,0,0,0,0,0,0,0,0,0,0,0,0,0,0,0,205,0,0,0,205,0,0,0,0,0,0,0,0,0,0,0,0,0,
0,0,0,0,0,0,0,0,0,0,0,0,0,0,0,0,0,0,0,0,0,0,0,0,0,0,0,0,0,0,0,0,0,0,0,0,0,0,0,0,0,0,0,0,0,0,0,0,0,0,0,0,0,0,0,0,0,0,0,0,
0,0,0,0,0,0,0,0,0,0,0,0,0,0,0,0,0,0,0,0,0,0,0,0,0,0,0,0,0,0,0,0,0,0,0,0,0,0,0,0,0,0,0,0,0,0,0,0,0,0,0,0,205,0,0,0,0,0,0,0,
0,0,0,0,0,0,0,0,0,0,0,0,0,0,0,0,0,0,0,0,0,0,0,0,0,0,0,0,0,0,0,0,0,0,0,0,0,0,0,0,0,0,0,0,0,0,0,0,0,0,205,205,0,0,0,0,0,0,0,0,
0,0,0,0,0,0,0,0,0,0,0,0,0,0,0,0,0,0,0,0,0,0,0,0,0,0,0,0,0,0,0,0,0,0,0,0,0,0,0,0,0,0,0,0,0,0,0,0,0,0,0,0,0,0,0,0,0,0,0,0
</data>
 </layer>
 <objectgroup id="5" name="Obstacles" visible="0">
  <object id="9" name="wall" x="384" y="2112" width="64" height="576"/>
  <object id="10" name="wall" x="960" y="2112" width="64" height="576"/>
  <object id="11" name="wall" x="1280" y="2880" width="64" height="576"/>
  <object id="12" name="wall" x="1856" y="2880" width="64" height="576"/>
  <object id="13" name="wall" x="1408" y="2112" width="64" height="448"/>
  <object id="14" name="wall" x="1856" y="2112" width="64" height="448"/>
  <object id="15" name="wall" x="832" y="3008" width="64" height="448"/>
  <object id="16" name="wall" x="384" y="3008" width="64" height="448"/>
  <object id="17" name="wall" x="448" y="3008" width="384" height="64"/>
  <object id="18" name="wall" x="1344" y="2880" width="512" height="64"/>
  <object id="19" name="wall" x="1344" y="3392" width="192" height="64"/>
  <object id="20" name="wall" x="1664" y="3392" width="192" height="64"/>
  <object id="21" name="wall" x="448" y="3392" width="128" height="64"/>
  <object id="22" name="wall" x="704" y="3392" width="128" height="64"/>
  <object id="23" name="wall" x="448" y="2624" width="192" height="64"/>
  <object id="24" name="wall" x="768" y="2624" width="192" height="64"/>
  <object id="25" name="wall" x="448" y="2112" width="512" height="64"/>
  <object id="26" name="wall" x="1472" y="2112" width="384" height="64"/>
  <object id="27" name="wall" x="1472" y="2496" width="128" height="64"/>
  <object id="28" name="wall" x="1728" y="2496" width="128" height="64"/>
  <object id="29" name="wall" x="2240" y="3136" width="64" height="640"/>
  <object id="30" name="wall" x="2304" y="1984" width="64" height="1792"/>
  <object id="31" name="wall" x="2240" y="1792" width="64" height="256"/>
  <object id="32" name="wall" x="2176" y="1600" width="64" height="320"/>
  <object id="33" name="wall" x="1664" y="1728" width="256" height="64"/>
  <object id="34" name="wall" x="1024" y="1792" width="704" height="64"/>
  <object id="35" name="wall" x="512" y="1856" width="576" height="64"/>
  <object id="36" name="wall" x="320" y="1920" width="256" height="64"/>
  <object id="37" name="wall" x="192" y="1984" width="128" height="64"/>
  <object id="38" name="wall" x="64" y="2048" width="192" height="64"/>
  <object id="39" name="wall" x="448" y="1408" width="256" height="64"/>
  <object id="40" name="wall" x="576" y="1344" width="320" height="64"/>
  <object id="41" name="wall" x="832" y="1280" width="256" height="64"/>
  <object id="42" name="wall" x="1024" y="1216" width="512" height="64"/>
  <object id="43" name="wall" x="1472" y="1344" width="256" height="64"/>
  <object id="44" name="wall" x="1664" y="1408" width="384" height="64"/>
  <object id="45" name="wall" x="1984" y="1472" width="128" height="64"/>
  <object id="46" name="wall" x="2048" y="1536" width="128" height="64"/>
  <object id="47" name="wall" x="2112" y="1600" width="64" height="64"/>
  <object id="48" name="wall" x="1472" y="1280" width="64" height="64"/>
  <object id="49" name="wall" x="1280" y="1152" width="128" height="64"/>
  <object id="50" name="wall" x="2368" y="2112" width="64" height="448"/>
  <object id="51" name="wall" x="2432" y="2240" width="64" height="384"/>
  <object id="52" name="wall" x="2368" y="2560" width="64" height="704"/>
  <object id="53" name="wall" x="2368" y="3520" width="64" height="256"/>
  <object id="54" name="wall" x="448" y="768" width="64" height="640"/>
  <object id="55" name="wall" x="512" y="512" width="64" height="320"/>
  <object id="56" name="wall" x="576" y="448" width="64" height="128"/>
  <object id="57" name="wall" x="960" y="192" width="64" height="576"/>
  <object id="58" name="wall" x="896" y="640" width="64" height="128"/>
  <object id="59" name="wall" x="896" y="64" width="64" height="192"/>
  <object id="60" name="wall" x="2944" y="640" width="256" height="64"/>
  <object id="61" name="wall" x="3392" y="640" width="256" height="64"/>
  <object id="62" name="wall" x="3584" y="192" width="64" height="448"/>
  <object id="63" name="wall" x="2944" y="192" width="640" height="64"/>
  <object id="64" name="wall" x="2944" y="256" width="64" height="384"/>
  <object id="65" name="wall" x="3008" y="320" width="576" height="64"/>
  <object id="66" name="wall" x="3136" y="1280" width="64" height="128"/>
  <object id="67" name="wall" x="3072" y="1344" width="64" height="128"/>
  <object id="68" name="wall" x="3456" y="1408" width="128" height="64"/>
  <object id="69" name="wall" x="2752" y="1280" width="128" height="64"/>
  <object id="70" name="wall" x="2816" y="1344" width="64" height="256"/>
  <object id="71" name="wall" x="2880" y="1536" width="64" height="64"/>
  <object id="72" name="wall" x="2880" y="1600" width="128" height="64"/>
  <object id="73" name="wall" x="2944" y="1664" width="128" height="128"/>
  <object id="74" name="wall" x="3008" y="1792" width="128" height="64"/>
  <object id="75" name="wall" x="3008" y="1856" width="64" height="64"/>
  <object id="76" name="wall" x="3136" y="1856" width="64" height="128"/>
  <object id="77" name="wall" x="3200" y="1984" width="64" height="128"/>
  <object id="78" name="wall" x="3328" y="1728" width="64" height="64"/>
  <object id="79" name="wall" x="3328" y="1792" width="64" height="64"/>
  <object id="80" name="wall" x="3392" y="1856" width="64" height="128"/>
  <object id="81" name="wall" x="2816" y="1728" width="64" height="128"/>
  <object id="82" name="wall" x="2752" y="1792" width="64" height="192"/>
  <object id="83" name="wall" x="2496" y="1792" width="64" height="128"/>
  <object id="84" name="wall" x="2688" y="1984" width="64" height="128"/>
  <object id="85" name="wall" x="2624" y="2176" width="64" height="64"/>
  <object id="86" name="wall" x="3008" y="2112" width="64" height="128"/>
  <object id="87" name="wall" x="3072" y="2176" width="64" height="128"/>
  <object id="88" name="wall" x="3136" y="2240" width="64" height="128"/>
  <object id="89" name="wall" x="3200" y="2304" width="128" height="64"/>
  <object id="90" name="wall" x="2944" y="2240" width="64" height="128"/>
  <object id="91" name="wall" x="2880" y="2304" width="64" height="64"/>
  <object id="92" name="wall" x="2816" y="2368" width="64" height="128"/>
  <object id="93" name="wall" x="2752" y="2432" width="64" height="256"/>
  <object id="94" name="wall" x="2944" y="2624" width="64" height="320"/>
  <object id="95" name="wall" x="3008" y="2816" width="64" height="64"/>
  <object id="96" name="wall" x="3072" y="2880" width="64" height="64"/>
  <object id="97" name="wall" x="3136" y="2752" width="64" height="128"/>
  <object id="98" name="wall" x="3200" y="2752" width="128" height="64"/>
  <object id="99" name="wall" x="3264" y="2688" width="64" height="64"/>
  <object id="100" name="wall" x="3328" y="2624" width="64" height="64"/>
  <object id="101" name="wall" x="3392" y="2560" width="64" height="64"/>
  <object id="102" name="wall" x="3456" y="2560" width="64" height="64"/>
  <object id="103" name="wall" x="3456" y="2496" width="192" height="64"/>
  <object id="104" name="wall" x="3584" y="2560" width="64" height="64"/>
  <object id="105" name="wall" x="2432" y="2752" width="64" height="128"/>
  <object id="106" name="wall" x="2496" y="2816" width="64" height="128"/>
  <object id="107" name="wall" x="2560" y="2880" width="64" height="128"/>
  <object id="108" name="wall" x="2624" y="2944" width="128" height="64"/>
  <object id="109" name="wall" x="2688" y="3008" width="128" height="64"/>
  <object id="110" name="wall" x="2752" y="3072" width="128" height="64"/>
  <object id="111" name="wall" x="2880" y="2944" width="64" height="128"/>
  <object id="112" name="wall" x="3328" y="2880" width="64" height="128"/>
  <object id="113" name="wall" x="3264" y="2944" width="64" height="192"/>
  <object id="114" name="wall" x="3648" y="3008" width="64" height="256"/>
  <object id="115" name="wall" x="3328" y="3264" width="128" height="64"/>
  <object id="116" name="wall" x="3392" y="3328" width="128" height="64"/>
  <object id="117" name="wall" x="3456" y="3392" width="64" height="64"/>
  <object id="118" name="wall" x="3328" y="3648" width="64" height="64"/>
  <object id="119" name="wall" x="3264" y="3712" width="64" height="64"/>
  <object id="120" name="wall" x="3200" y="3712" width="64" height="64"/>
  <object id="121" name="wall" x="2944" y="3456" width="64" height="128"/>
  <object id="122" name="wall" x="3008" y="3392" width="64" height="128"/>
  <object id="123" name="wall" x="2688" y="3520" width="64" height="64"/>
  <object id="124" name="wall" x="2560" y="3456" width="128" height="64"/>
  <object id="126" name="wall" x="2560" y="3328" width="64" height="128"/>
  <object id="127" name="wall" x="2496" y="3328" width="64" height="64"/>
  <object id="128" name="wall" x="2304" y="1344" width="64" height="128"/>
  <object id="129" name="wall" x="2368" y="1408" width="64" height="128"/>
  <object id="130" name="wall" x="2432" y="1472" width="64" height="64"/>
  <object id="131" name="wall" x="2432" y="1472" width="64" height="64"/>
  <object id="132" name="wall" x="2432" y="1472" width="64" height="128"/>
  <object id="134" name="wall" x="2496" y="1536" width="64" height="64"/>
  <object id="135" name="wall" x="1280" y="384" width="16" height="704"/>
  <object id="136" name="wall" x="1344" y="1136" width="256" height="16"/>
  <object id="137" name="wall" x="1792" y="1136" width="1920" height="16"/>
  <object id="139" name="wall" x="3760" y="128" width="16" height="960"/>
  <object id="140" name="wall" x="1344" y="64" width="2368" height="16"/>
  <object id="141" name="wall" x="1280" y="128" width="16" height="64"/>
  <object id="142" name="player" x="512" y="2480" width="64" height="64"/>
  <object id="143" name="wall" x="0" y="0" width="64" height="3840"/>
  <object id="144" name="wall" x="64" y="3776" width="3776" height="64"/>
  <object id="145" name="wall" x="3776" y="0" width="64" height="3776"/>
  <object id="146" name="wall" x="64" y="0" width="3712" height="64"/>
  <object id="147" name="wall" x="1280" y="1088" width="64" height="64"/>
  <object id="148" name="wall" x="1280" y="64" width="64" height="64"/>
  <object id="149" name="wall" x="3712" y="64" width="64" height="64"/>
  <object id="150" name="wall" x="3712" y="1088" width="64" height="64"/>
 </objectgroup>
 <objectgroup id="6" name="Pokemon">
  <object id="166" name="leafcoon" type="pokemon" x="1184" y="2320" width="32" height="32"/>
  <object id="168" name="firepenguin" type="pokemon" x="928" y="1808" width="32" height="32"/>
  <object id="171" name="woterpitter" type="pokemon" x="1840" y="1952" width="32" height="32"/>
  <object id="174" name="turtle" type="pokemon" x="1408" y="1472" width="32" height="32"/>
  <object id="177" name="leafcoon" type="pokemon" x="1120" y="3584" width="32" height="32"/>
  <object id="178" name="leafcoon" type="pokemon" x="2048" y="3600" width="32" height="32"/>
  <object id="179" name="leafcoon" type="pokemon" x="2096" y="2304" width="32" height="32"/>
  <object id="180" name="leafcoon" type="pokemon" x="192" y="2800" width="32" height="32"/>
  <object id="181" name="leafcoon" type="pokemon" x="176" y="2176" width="32" height="32"/>
  <object id="182" name="leafcoon" type="pokemon" x="304" y="1616" width="32" height="32"/>
  <object id="183" name="leafcoon" type="pokemon" x="1280" y="1680" width="32" height="32"/>
  <object id="184" name="leafcoon" type="pokemon" x="256" y="512" width="32" height="32"/>
  <object id="185" name="leafcoon" type="pokemon" x="752" y="528" width="32" height="32"/>
  <object id="186" name="leafcoon" type="pokemon" x="1168" y="1024" width="32" height="32"/>
  <object id="187" name="firepenguin" type="pokemon" x="3184" y="3216" width="32" height="32"/>
  <object id="188" name="firepenguin" type="pokemon" x="2576" y="3088" width="32" height="32"/>
  <object id="189" name="firepenguin" type="pokemon" x="3344" y="2464" width="32" height="32"/>
  <object id="190" name="firepenguin" type="pokemon" x="2672" y="2368" width="32" height="32"/>
  <object id="191" name="firepenguin" type="pokemon" x="3504" y="1664" width="32" height="32"/>
  <object id="192" name="firepenguin" type="pokemon" x="2640" y="1424" width="32" height="32"/>
  <object id="193" name="firepenguin" type="pokemon" x="3008" y="992" width="32" height="32"/>
  <object id="194" name="firepenguin" type="pokemon" x="2272" y="496" width="32" height="32"/>
  <object id="195" name="firepenguin" type="pokemon" x="1440" y="544" width="32" height="32"/>
  <object id="196" name="firepenguin" type="pokemon" x="416" y="112" width="32" height="32"/>
  <object id="197" name="firepenguin" type="pokemon" x="1104" y="3152" width="32" height="32"/>
  <object id="198" name="woterpitter" type="pokemon" x="240" y="1056" width="32" height="32"/>
  <object id="199" name="woterpitter" type="pokemon" x="720" y="208" width="32" height="32"/>
  <object id="200" name="woterpitter" type="pokemon" x="768" y="928" width="32" height="32"/>
  <object id="201" name="woterpitter" type="pokemon" x="1104" y="576" width="32" height="32"/>
  <object id="202" name="woterpitter" type="pokemon" x="1792" y="256" width="32" height="32"/>
  <object id="203" name="woterpitter" type="pokemon" x="1776" y="976" width="32" height="32"/>
  <object id="204" name="woterpitter" type="pokemon" x="3488" y="2176" width="32" height="32"/>
  <object id="205" name="woterpitter" type="pokemon" x="320" y="3568" width="32" height="32"/>
  <object id="206" name="woterpitter" type="pokemon" x="1952" y="2640" width="32" height="32"/>
  <object id="208" name="leafcoon" type="pokemon" x="2944" y="1984" width="32" height="32"/>
  <object id="209" name="turtle" type="pokemon" x="2064" y="3088" width="32" height="32"/>
  <object id="210" name="turtle" type="pokemon" x="672" y="1632" width="32" height="32"/>
  <object id="211" name="turtle" type="pokemon" x="736" y="1136" width="32" height="32"/>
  <object id="212" name="turtle" type="pokemon" x="2176" y="1264" width="32" height="32"/>
  <object id="213" name="turtle" type="pokemon" x="3264" y="3568" width="32" height="32"/>
  <object id="214" name="turtle" type="pokemon" x="2416" y="768" width="32" height="32"/>
  <object id="215" name="firepenguin_sure" type="pokemon" x="3024" y="2544" width="32" height="32"/>
  <object id="216" name="rocky_sure" type="pokemon" x="3152" y="1568" width="32" height="32"/>
  <object id="217" name="floataphant_sure" type="pokemon" x="3392" y="864" width="32" height="32"/>
  <object id="218" name="turtle_sure" type="pokemon" x="2304" y="240" width="32" height="32"/>
  <object id="219" name="beary_sure" type="pokemon" x="1152" y="240" width="32" height="32"/>
  <object id="220" name="leafcoon_sure" type="pokemon" x="320" y="1248" width="32" height="32"/>
  <object id="221" name="flamingo_sure" type="pokemon" x="1648" y="3168" width="32" height="32"/>
  <object id="222" name="woterpitter_sure" type="pokemon" x="2624" y="3648" width="32" height="32"/>
 </objectgroup>
</map>
